X:1
T:Title
%%score { ( 1 3 ) | ( 2 4 ) }
L:1/8
Q:1/4=90
M:2/4
K:G
V:1 treble nm="Grand Piano"
V:3 treble 
V:2 bass 
V:4 bass 
V:1
 [B,Gd][CGe] [B,Gd][DGB] | [CEG]>[CEA] [CEG][G,CE] | [G,B,D][B,DG] [DGB][DGd] | [DFA]4 | %4
w: S.~W.~Straub * * *||||
 [B,Gd][CGe] [B,Gd][DGB] | [EG]>[EA] [EG]E | DG A>[B,G] | [B,G]4 | [Ge][Ge] [EGc][Ge] | d>d Bd | %10
w: ||||||
 dB B[^CGA] | F2- [Fd]2 | [B,Gd][CGe] [B,Gd][DB] | [CEG]>[CEA] [CEG]E | %14
w: ||||
[M:19/32] z/4 z/4 z/4 z/4 z/4 z/4 z/ A/4-A/4-A/4-A/4-A/4-A/4-A/-<A/ z/4 |[M:2/4] [B,G]4 |] %16
w: ||
V:2
 G,,G,, G,,B,, | C,>C, C,C, | G,,G,, G,,B,, | D,4 | G,,G,, G,,B,, | [C,C]>[C,C] [C,C][C,G,C] | %6
 [D,G,B,][D,G,B,] [D,F,C]>[G,,G,] | [G,,G,]4 | [C,C][C,C] C,[C,C] | [G,B,G]>[G,B,G] [G,DG][G,B,G] | %10
 [G,B,G][G,DG] [A,^CG][K:bass]A,, | z2 A,2 | G,,G,, G,,B,, | C,>B,, C,[C,G,C] | %14
[M:19/32] z/4 z/4 z/4 z/4 z/4 z/4 z/ [D,F,C]/4-[D,F,C]/4-[D,F,C]/4-[D,F,C]/4-[D,F,C]/4-[D,F,C]/4-[D,F,C]/-<[D,F,C]/ z/4 | %15
[M:2/4] [G,,G,]4 |] %16
V:3
 x4 | x4 | x4 | x4 | x4 | x4 | x4 | x4 | x4 | x4 | x4 | [DA]2 z2 | x4 | x4 | %14
[M:19/32] D/-<D/G/-<G/ z/4 z/4 z/4 z/4 z/4 z/4 z/ [B,G]3/4 |[M:2/4] x4 |] %16
V:4
 x4 | x4 | x4 | x4 | x4 | x4 | x4 | x4 | x4 | x4 | x3[K:bass] x | D,4 | x4 | x4 | %14
[M:19/32] [D,G,B,]/-<[D,G,B,]/[D,G,B,]/-<[D,G,B,]/ z/4 z/4 z/4 z/4 z/4 z/4 z/ [G,,G,]3/4 | %15
[M:2/4] x4 |] %16

